X:1
T:Love Makes Our Toil Worthwhile
T:Love Makes Our Toil Worthwhile
T:Edmund Simon Lorenz
T:Eunice Whitfold, 1908
T:Public Domain Courtesy of the Cyber Hymnal™
T:Public Domain Courtesy of the Cyber Hymnal™
C:Edmund Simon Lorenz
Z:Public Domain
Z:Courtesy of the Cyber Hymnal™
%%score ( 1 2 ) ( 3 4 )
L:1/8
Q:1/4=125
M:6/4
K:Bb
V:1 treble 
V:2 treble 
V:3 bass 
V:4 bass 
V:1
 [B,D][CE] | [DF]2 [Fd]2 [EA]2 [Ec]2 [DB]2 [DF]2 | [FA]2 [EG]2 [E^F]2 [EG]4 [EB][EB] | %3
w: 1.~O- pen|wid- er the door of your|heart to the light; Let the|
w: 2.~If your|face is a- light with the|sun- shine of love Then your|
w: 3.~Learn to|love men a- bout you, what-|ev- er you learn, Find- ing|
 [EB]2 [EA]2 [EG]2 [EA]2 [CE]2 [EA]2 | [EG]2 [DF]2 [^C=E]2 [DF]4 [B,D][=C_E] | %5
w: sun- shine of love make its|cor- ners all bright; Let no|
w: soul will be filled with a|joy from a- bove; Ev- ery-|
w: no one too low- ly and|no one to spurn; Love will|
 [DF]2 [Fd]2 [EA]2 [Ec]2 [DB]2 [_Af]2 | [Gf]2 [Ge]2 [FG]2 [Ee]4 [Ge][Ge] | %7
w: self- ish de- sires bring the|sha- dow of night, On- ly|
w: where you’ll find glad- ness, tho’|wide- ly you rove; On- ly|
w: teach you to help them, their|good to dis- cern, On- ly|
 [Fd]2 [DF]2 [DB]2 [Ec]4 [Fd]2 | [DB]6- [DB]4 ||"^Refrain" [Fd][Fd] | [Fd]2 c8 [Fd][EA] | %11
w: love makes our toil worth-|while. *|Let the|sun- light and the|
w: love makes our toil worth-|while. *|||
w: love makes our toil worth-|while. *|||
 [Ec]2 B8 [Ec][EG] | [EB]2 [EA]2 [EG]2 [EA]2 [CE]2 [EA][EA] | %13
w: love- light Fill your|face with their glo- ry, With a|
w: ||
w: ||
 [EG]2 [DF]2 [^C=E]2 [DF]4 [B,D][=C_E] | [DF]2 [Fd]2 [EA]2 [Ec]2 [EB]2 [_Af]2 | %15
w: bright, sun- ny smile; Bear your|tri- als with pa- tience, Good|
w: ||
w: ||
 [Gf]2 [Ge]2 [FG]2 [Ee]4 [Ge][Ge] | [Fd]2 [DF]2 [DB]2 [Ec]4 [Fd]2 | [DB]6- [DB]4 |] %18
w: cheer sure will win; On- ly|love makes our toil worth-|while! *|
w: |||
w: |||
V:2
 x2 | x12 | x12 | x12 | x12 | x12 | x12 | x12 | x10 || x2 | x2 (E2 E2 E4) x2 | x2 (D2 D2 D4) x2 | %12
 x12 | x12 | x12 | x12 | x12 | x10 |] %18
V:3
 [B,,F,][B,,F,] | [B,,B,]2 [B,,B,]2 [B,,F,]2 [B,,F,]2 [B,,F,]2 [B,,B,]2 | %2
w: ~ ~|~ ~ ~ ~ ~ ~|
 [E,B,]2 [E,B,]2 [E,A,]2 [E,B,]4 [E,G,][E,G,] | F,2 [F,C]2 [F,B,]2 [F,C]2 [F,A,]2 [F,C]2 | %4
w: ~ ~ ~ ~ ~ ~|~ ~ ~ ~ ~ ~|
 [B,,B,]2 [B,,B,]2 [B,,G,]2 [B,,F,]4 [B,,F,][B,,F,] | %5
w: ~ ~ ~ ~ ~ ~|
 [B,,B,]2 [B,,B,]2 [B,,F,]2 [B,,F,]2 [B,,F,]2 [D,B,]2 | %6
w: ~ ~ ~ ~ ~ ~|
 [E,B,]2 [E,B,]2 [D,=B,]2 [C,C]4 [C,C][C,B,] | [F,B,]2 [F,B,]2 [F,B,]2 [F,A,]4 F,2 | %8
w: ~ ~ ~ ~ ~ ~|~ ~ ~ ~ ~|
 [B,,F,]6- [B,,F,]4 || B,B, | [F,A,]2 [F,A,]2 [F,A,]2 [F,A,]4 F,F, | %11
w: ~ *|Let the|sun- light come in, Let the|
 [B,,F,]2 [B,,F,]2 [B,,F,]2 [B,,F,]4 [B,,G,][B,,G,] | %12
w: love- light come in, * *|
 [C,F,]2 [C,F,]2 [C,A,]2 [F,C]2 [F,A,]2 [F,C][F,C] | %13
w: |
 [B,,B,]2 [B,,B,]2 [B,,G,]2 [B,,F,]4 [B,,F,][B,,F,] | %14
w: |
 [B,,B,]2 [B,,B,]2 [B,,F,]2 [B,,F,]2 [B,,F,]2 [B,,B,]2 | %15
w: |
 [E,B,]2 [E,B,]2 [D,=B,]2 [C,C]4 [C,C][C,B,] | [F,B,]2 [F,B,]2 [F,B,]2 [F,A,]4 F,2 | %17
w: ||
 [B,,F,]6- [B,,F,]4 |] %18
w: |
V:4
 x2 | x12 | x12 | F,2 x10 | x12 | x12 | x12 | x10 F,2 | x10 || B,B, | x10 F,F, | x12 | x12 | x12 | %14
 x12 | x12 | x10 F,2 | x10 |] %18

